X: 34585
T: Rising Sun, The
R: waltz
M: 3/4
K: Dmajor
|:f3e d2|e2 c2 A2|d3c B2|A2 GF ED|CD E2 E2|E4 F2|
GF GA Bc|d2 B2 G2|A2 F2 D2|E2 C2 A,2|B,C D2 D2|1 D3A de:|2 D3F ED||
|:CD E2 C2|A2 E2 G2|F2 D2 d2|cd e2 D2|CD E2 E2|E4 F2|
G2 B2 A2|c2 B2 d2|e3f ed|c3d eg|f2 d2 d2|1 d3F ED:|2 d6||

